X: 44
T: Mrs. Norman McKeigan
C: Dan R. Macdonald (1912-76)
M:4/4
R:reel
L:1/8
Z:added by Alf 
K:D
A,|D2DG FAAB|defd g2fe|dcBA BcdA|BdAF AFEF|
D2DE FAAB|defd g2fe|dcBA BcdA|BdAF DD2f||
abaf defd|fada f2ef|abaf defd|fadf e2ef|
abaf defd|fadf g2fe|dcBA BcdA|BdAF D4||
